static/images/pieces/makruk/ada/rR.svg

<svg height="360" viewBox="0 0 95.249998 95.250003" width="360" xmlns="http://www.w3.org/2000/svg" xmlns:xlink="http://www.w3.org/1999/xlink"><linearGradient id="a" gradientUnits="userSpaceOnUse" x1="180" x2="180" y1="220" y2="310"><stop offset="0" stop-color="#ff2a2a"/><stop offset="1" stop-color="#d40000"/></linearGradient><filter id="b" color-interpolation-filters="sRGB"><feFlood flood-opacity=".498039" result="flood"/><feComposite in="flood" in2="SourceGraphic" operator="in" result="composite1"/><feGaussianBlur in="composite1" result="blur" stdDeviation="3"/><feOffset dx="6" dy="6" result="offset"/><feComposite in="SourceGraphic" in2="offset" operator="over" result="composite2"/></filter><g transform="scale(.26458333)"><path d="m178.39844 148.08008-59.3086 49.42187h-11.58789v9.9961h-10.00195v10.00195h-7.5v2.49805l-1.535156-1.97461c-18.837853 14.62949-30.166004 29.82125-30.929688 45.9082-.751263 15.82535 8.943908 31.63012 29.962891 47.30859v28.76172h2.501953v2.4961h90 90v-2.4961h2.50195v-28.76172c21.01899-15.67847 30.71416-31.48324 29.96289-47.30859-.76368-16.08695-12.09183-31.27871-30.92968-45.9082l-1.53516 1.97461v-2.49805h-7.5v-10.00195h-10.00195v-9.9961h-11.58789l-59.3086-49.42187-1.60156 1.91992z" filter="url(#b)"/><g><g fill="#ff2a2a"><path d="m180 153.25391 53.10156 44.24804h-53.10156-53.10156z"/><path d="m112.5 202.5h67.5 67.5v4.99805h-67.5-67.5z"/><path d="m102.49805 212.50195h77.50195 77.50195v4.99805h-77.50195-77.50195z"/></g><path d="m90.878906 222.49805h89.121094 89.12109c17.85066 14.01665 27.69743 27.97291 28.34766 41.66992.65149 13.7236-7.73523 28.08669-28.3125 43.33203h-89.15625-89.15625c-20.577268-15.24534-28.96399-29.60843-28.3125-43.33203.650228-13.69701 10.496997-27.65327 28.347656-41.66992z" fill="url(#a)"/><path d="m92.501953 312.49805h87.498047 87.49805v25.00195h-87.49805-87.498047z" fill="#d40000"/></g></g></svg>

<?xml version="1.0" encoding="UTF-8" standalone="no"?>
<!-- Created with Inkscape (http://www.inkscape.org/) -->

<svg
   xmlns:dc="http://purl.org/dc/elements/1.1/"
   xmlns:cc="http://creativecommons.org/ns#"
   xmlns:rdf="http://www.w3.org/1999/02/22-rdf-syntax-ns#"
   xmlns:svg="http://www.w3.org/2000/svg"
   xmlns="http://www.w3.org/2000/svg"
   xmlns:xlink="http://www.w3.org/1999/xlink"
   xmlns:sodipodi="http://sodipodi.sourceforge.net/DTD/sodipodi-0.dtd"
   xmlns:inkscape="http://www.inkscape.org/namespaces/inkscape"
   width="360"
   height="360"
   viewBox="0 0 95.249998 95.250003"
   version="1.1"
   id="svg8"
   inkscape:version="0.92.5 (2060ec1f9f, 2020-04-08)"
   sodipodi:docname="rua_r.svg">
  <defs
     id="defs2">
    <linearGradient
       inkscape:collect="always"
       id="linearGradient1027">
      <stop
         style="stop-color:#ff2a2a;stop-opacity:1"
         offset="0"
         id="stop1023" />
      <stop
         style="stop-color:#d40000;stop-opacity:1"
         offset="1"
         id="stop1025" />
    </linearGradient>
    <linearGradient
       inkscape:collect="always"
       xlink:href="#linearGradient1027"
       id="linearGradient1029"
       x1="180"
       y1="220"
       x2="180"
       y2="310"
       gradientUnits="userSpaceOnUse" />
    <filter
       style="color-interpolation-filters:sRGB;"
       inkscape:label="Drop Shadow"
       id="filter922">
      <feFlood
         flood-opacity="0.498039"
         flood-color="rgb(0,0,0)"
         result="flood"
         id="feFlood912" />
      <feComposite
         in="flood"
         in2="SourceGraphic"
         operator="in"
         result="composite1"
         id="feComposite914" />
      <feGaussianBlur
         in="composite1"
         stdDeviation="3"
         result="blur"
         id="feGaussianBlur916" />
      <feOffset
         dx="6"
         dy="6"
         result="offset"
         id="feOffset918" />
      <feComposite
         in="SourceGraphic"
         in2="offset"
         operator="over"
         result="composite2"
         id="feComposite920" />
    </filter>
  </defs>
  <sodipodi:namedview
     id="base"
     pagecolor="#ffffff"
     bordercolor="#666666"
     borderopacity="1.0"
     inkscape:pageopacity="0.0"
     inkscape:pageshadow="2"
     inkscape:zoom="1.979899"
     inkscape:cx="122.68928"
     inkscape:cy="133.19663"
     inkscape:document-units="mm"
     inkscape:current-layer="layer2"
     showgrid="true"
     units="px"
     inkscape:window-width="1877"
     inkscape:window-height="974"
     inkscape:window-x="4"
     inkscape:window-y="48"
     inkscape:window-maximized="0">
    <inkscape:grid
       type="xygrid"
       id="grid3721" />
  </sodipodi:namedview>
  <metadata
     id="metadata5">
    <rdf:RDF>
      <cc:Work
         rdf:about="">
        <dc:format>image/svg+xml</dc:format>
        <dc:type
           rdf:resource="http://purl.org/dc/dcmitype/StillImage" />
        <dc:title />
      </cc:Work>
    </rdf:RDF>
  </metadata>
  <g
     inkscape:groupmode="layer"
     id="layer2"
     inkscape:label="Background"
     style="display:inline">
    <path
       style="color:#000000;font-style:normal;font-variant:normal;font-weight:normal;font-stretch:normal;font-size:medium;line-height:normal;font-family:sans-serif;font-variant-ligatures:normal;font-variant-position:normal;font-variant-caps:normal;font-variant-numeric:normal;font-variant-alternates:normal;font-feature-settings:normal;text-indent:0;text-align:start;text-decoration:none;text-decoration-line:none;text-decoration-style:solid;text-decoration-color:#000000;letter-spacing:normal;word-spacing:normal;text-transform:none;writing-mode:lr-tb;direction:ltr;text-orientation:mixed;dominant-baseline:auto;baseline-shift:baseline;text-anchor:start;white-space:normal;shape-padding:0;clip-rule:nonzero;display:inline;overflow:visible;visibility:visible;opacity:1;isolation:auto;mix-blend-mode:normal;color-interpolation:sRGB;color-interpolation-filters:linearRGB;solid-color:#000000;solid-opacity:1;vector-effect:none;fill:#000000;fill-opacity:1;fill-rule:nonzero;stroke:none;stroke-width:5;stroke-linecap:butt;stroke-linejoin:miter;stroke-miterlimit:4;stroke-dasharray:none;stroke-dashoffset:0;stroke-opacity:1;color-rendering:auto;image-rendering:auto;shape-rendering:auto;text-rendering:auto;enable-background:accumulate;filter:url(#filter922)"
       d="m 178.39844,148.08008 -59.3086,49.42187 h -11.58789 v 9.9961 H 97.5 V 217.5 H 90 v 2.49805 l -1.535156,-1.97461 c -18.837853,14.62949 -30.166004,29.82125 -30.929688,45.9082 -0.751263,15.82535 8.943908,31.63012 29.962891,47.30859 v 28.76172 H 90 v 2.4961 h 90 90 v -2.4961 h 2.50195 v -28.76172 c 21.01899,-15.67847 30.71416,-31.48324 29.96289,-47.30859 -0.76368,-16.08695 -12.09183,-31.27871 -30.92968,-45.9082 L 270,219.99805 V 217.5 h -7.5 v -10.00195 h -10.00195 v -9.9961 H 240.91016 L 181.60156,148.08008 180,150 Z"
       id="path963"
       transform="scale(0.26458333)"
       inkscape:connector-curvature="0" />
  </g>
  <g
     inkscape:groupmode="layer"
     id="layer3"
     inkscape:label="Fill"
     style="display:inline">
    <path
       style="color:#000000;font-style:normal;font-variant:normal;font-weight:normal;font-stretch:normal;font-size:medium;line-height:normal;font-family:sans-serif;font-variant-ligatures:normal;font-variant-position:normal;font-variant-caps:normal;font-variant-numeric:normal;font-variant-alternates:normal;font-feature-settings:normal;text-indent:0;text-align:start;text-decoration:none;text-decoration-line:none;text-decoration-style:solid;text-decoration-color:#000000;letter-spacing:normal;word-spacing:normal;text-transform:none;writing-mode:lr-tb;direction:ltr;text-orientation:mixed;dominant-baseline:auto;baseline-shift:baseline;text-anchor:start;white-space:normal;shape-padding:0;clip-rule:nonzero;display:inline;overflow:visible;visibility:visible;opacity:1;isolation:auto;mix-blend-mode:normal;color-interpolation:sRGB;color-interpolation-filters:linearRGB;solid-color:#000000;solid-opacity:1;vector-effect:none;fill:#ff2a2a;fill-opacity:1;fill-rule:nonzero;stroke:none;stroke-width:5;stroke-linecap:butt;stroke-linejoin:miter;stroke-miterlimit:4;stroke-dasharray:none;stroke-dashoffset:0;stroke-opacity:1;color-rendering:auto;image-rendering:auto;shape-rendering:auto;text-rendering:auto;enable-background:accumulate"
       d="m 180,153.25391 53.10156,44.24804 H 180 126.89844 Z"
       id="path961"
       inkscape:connector-curvature="0"
       transform="scale(0.26458333)" />
    <path
       style="color:#000000;font-style:normal;font-variant:normal;font-weight:normal;font-stretch:normal;font-size:medium;line-height:normal;font-family:sans-serif;font-variant-ligatures:normal;font-variant-position:normal;font-variant-caps:normal;font-variant-numeric:normal;font-variant-alternates:normal;font-feature-settings:normal;text-indent:0;text-align:start;text-decoration:none;text-decoration-line:none;text-decoration-style:solid;text-decoration-color:#000000;letter-spacing:normal;word-spacing:normal;text-transform:none;writing-mode:lr-tb;direction:ltr;text-orientation:mixed;dominant-baseline:auto;baseline-shift:baseline;text-anchor:start;white-space:normal;shape-padding:0;clip-rule:nonzero;display:inline;overflow:visible;visibility:visible;opacity:1;isolation:auto;mix-blend-mode:normal;color-interpolation:sRGB;color-interpolation-filters:linearRGB;solid-color:#000000;solid-opacity:1;vector-effect:none;fill:#ff2a2a;fill-opacity:1;fill-rule:nonzero;stroke:none;stroke-width:5;stroke-linecap:butt;stroke-linejoin:miter;stroke-miterlimit:4;stroke-dasharray:none;stroke-dashoffset:0;stroke-opacity:1;color-rendering:auto;image-rendering:auto;shape-rendering:auto;text-rendering:auto;enable-background:accumulate"
       d="m 112.5,202.5 h 67.5 67.5 v 4.99805 H 180 112.5 Z"
       id="path959"
       inkscape:connector-curvature="0"
       transform="scale(0.26458333)" />
    <path
       style="color:#000000;font-style:normal;font-variant:normal;font-weight:normal;font-stretch:normal;font-size:medium;line-height:normal;font-family:sans-serif;font-variant-ligatures:normal;font-variant-position:normal;font-variant-caps:normal;font-variant-numeric:normal;font-variant-alternates:normal;font-feature-settings:normal;text-indent:0;text-align:start;text-decoration:none;text-decoration-line:none;text-decoration-style:solid;text-decoration-color:#000000;letter-spacing:normal;word-spacing:normal;text-transform:none;writing-mode:lr-tb;direction:ltr;text-orientation:mixed;dominant-baseline:auto;baseline-shift:baseline;text-anchor:start;white-space:normal;shape-padding:0;clip-rule:nonzero;display:inline;overflow:visible;visibility:visible;opacity:1;isolation:auto;mix-blend-mode:normal;color-interpolation:sRGB;color-interpolation-filters:linearRGB;solid-color:#000000;solid-opacity:1;vector-effect:none;fill:#ff2a2a;fill-opacity:1;fill-rule:nonzero;stroke:none;stroke-width:5;stroke-linecap:butt;stroke-linejoin:miter;stroke-miterlimit:4;stroke-dasharray:none;stroke-dashoffset:0;stroke-opacity:1;color-rendering:auto;image-rendering:auto;shape-rendering:auto;text-rendering:auto;enable-background:accumulate"
       d="M 102.49805,212.50195 H 180 257.50195 V 217.5 H 180 102.49805 Z"
       id="path957"
       inkscape:connector-curvature="0"
       transform="scale(0.26458333)" />
    <path
       style="color:#000000;font-style:normal;font-variant:normal;font-weight:normal;font-stretch:normal;font-size:medium;line-height:normal;font-family:sans-serif;font-variant-ligatures:normal;font-variant-position:normal;font-variant-caps:normal;font-variant-numeric:normal;font-variant-alternates:normal;font-feature-settings:normal;text-indent:0;text-align:start;text-decoration:none;text-decoration-line:none;text-decoration-style:solid;text-decoration-color:#000000;letter-spacing:normal;word-spacing:normal;text-transform:none;writing-mode:lr-tb;direction:ltr;text-orientation:mixed;dominant-baseline:auto;baseline-shift:baseline;text-anchor:start;white-space:normal;shape-padding:0;clip-rule:nonzero;display:inline;overflow:visible;visibility:visible;opacity:1;isolation:auto;mix-blend-mode:normal;color-interpolation:sRGB;color-interpolation-filters:linearRGB;solid-color:#000000;solid-opacity:1;vector-effect:none;fill:url(#linearGradient1029);fill-opacity:1;fill-rule:nonzero;stroke:none;stroke-width:5;stroke-linecap:butt;stroke-linejoin:miter;stroke-miterlimit:4;stroke-dasharray:none;stroke-dashoffset:0;stroke-opacity:1;color-rendering:auto;image-rendering:auto;shape-rendering:auto;text-rendering:auto;enable-background:accumulate"
       d="M 90.878906,222.49805 H 180 269.12109 c 17.85066,14.01665 27.69743,27.97291 28.34766,41.66992 0.65149,13.7236 -7.73523,28.08669 -28.3125,43.33203 H 180 90.84375 C 70.266482,292.25466 61.87976,277.89157 62.53125,264.16797 63.181478,250.47096 73.028247,236.5147 90.878906,222.49805 Z"
       id="path955"
       inkscape:connector-curvature="0"
       transform="scale(0.26458333)" />
    <path
       style="color:#000000;font-style:normal;font-variant:normal;font-weight:normal;font-stretch:normal;font-size:medium;line-height:normal;font-family:sans-serif;font-variant-ligatures:normal;font-variant-position:normal;font-variant-caps:normal;font-variant-numeric:normal;font-variant-alternates:normal;font-feature-settings:normal;text-indent:0;text-align:start;text-decoration:none;text-decoration-line:none;text-decoration-style:solid;text-decoration-color:#000000;letter-spacing:normal;word-spacing:normal;text-transform:none;writing-mode:lr-tb;direction:ltr;text-orientation:mixed;dominant-baseline:auto;baseline-shift:baseline;text-anchor:start;white-space:normal;shape-padding:0;clip-rule:nonzero;display:inline;overflow:visible;visibility:visible;opacity:1;isolation:auto;mix-blend-mode:normal;color-interpolation:sRGB;color-interpolation-filters:linearRGB;solid-color:#000000;solid-opacity:1;vector-effect:none;fill:#d40000;fill-opacity:1;fill-rule:nonzero;stroke:none;stroke-width:5;stroke-linecap:butt;stroke-linejoin:miter;stroke-miterlimit:4;stroke-dasharray:none;stroke-dashoffset:0;stroke-opacity:1;color-rendering:auto;image-rendering:auto;shape-rendering:auto;text-rendering:auto;enable-background:accumulate"
       d="M 92.501953,312.49805 H 180 267.49805 V 337.5 H 180 92.501953 Z"
       id="path888"
       inkscape:connector-curvature="0"
       transform="scale(0.26458333)" />
  </g>
  <g
     inkscape:label="Strokes"
     inkscape:groupmode="layer"
     id="layer1"
     transform="translate(0,-201.74997)"
     style="display:none">
    <path
       style="fill:none;stroke:#000000;stroke-width:1.32291663;stroke-miterlimit:4;stroke-dasharray:none"
       d="m 23.812501,283.7708 v 7.9375"
       id="path131"
       inkscape:connector-curvature="0" />
    <path
       style="fill:none;stroke:#000000;stroke-width:1.32291663;stroke-miterlimit:4;stroke-dasharray:none"
       d="m 23.812501,283.7708 c -11.324642,-8.29677 -9.819667,-16.18653 0,-23.8125"
       id="path135"
       inkscape:connector-curvature="0"
       sodipodi:nodetypes="cc" />
    <path
       style="fill:none;stroke:#000000;stroke-width:1.32291663;stroke-miterlimit:4;stroke-dasharray:none"
       d="M 23.812501,259.9583 H 47.625"
       id="path137"
       inkscape:connector-curvature="0" />
    <path
       style="fill:none;stroke:#000000;stroke-width:1.32291663;stroke-miterlimit:4;stroke-dasharray:none"
       d="m 26.458334,259.9583 v -2.64583 H 47.625"
       id="path139"
       inkscape:connector-curvature="0" />
    <path
       style="fill:none;stroke:#000000;stroke-width:1.32291663;stroke-miterlimit:4;stroke-dasharray:none"
       d="m 29.104167,257.31247 v -2.64583 H 47.625"
       id="path141"
       inkscape:connector-curvature="0" />
    <path
       style="fill:none;stroke:#000000;stroke-width:1.32291663;stroke-miterlimit:4;stroke-dasharray:none"
       d="M 31.750001,254.66664 47.625,241.43747"
       id="path143"
       inkscape:connector-curvature="0" />
    <path
       style="fill:none;stroke:#000000;stroke-width:1.32291663;stroke-miterlimit:4;stroke-dasharray:none"
       d="M 23.812501,283.7708 H 47.625"
       id="path145"
       inkscape:connector-curvature="0" />
    <path
       style="fill:none;stroke:#000000;stroke-width:1.32291663;stroke-miterlimit:4;stroke-dasharray:none"
       d="M 47.625,291.7083 H 23.812501"
       id="path147"
       inkscape:connector-curvature="0" />
    <path
       style="fill:none;stroke:#000000;stroke-width:1.32291663;stroke-miterlimit:4;stroke-dasharray:none"
       d="m 71.437501,283.7708 v 7.9375"
       id="path131-2"
       inkscape:connector-curvature="0" />
    <path
       style="fill:none;stroke:#000000;stroke-width:1.32291663;stroke-miterlimit:4;stroke-dasharray:none"
       d="m 71.437501,283.7708 c 11.324642,-8.29677 9.819668,-16.18653 0,-23.8125"
       id="path135-7"
       inkscape:connector-curvature="0"
       sodipodi:nodetypes="cc" />
    <path
       style="fill:none;stroke:#000000;stroke-width:1.32291663;stroke-miterlimit:4;stroke-dasharray:none"
       d="M 71.437501,259.9583 H 47.625002"
       id="path137-0"
       inkscape:connector-curvature="0" />
    <path
       style="fill:none;stroke:#000000;stroke-width:1.32291663;stroke-miterlimit:4;stroke-dasharray:none"
       d="m 68.791668,259.9583 v -2.64583 H 47.625002"
       id="path139-9"
       inkscape:connector-curvature="0" />
    <path
       style="fill:none;stroke:#000000;stroke-width:1.32291663;stroke-miterlimit:4;stroke-dasharray:none"
       d="m 66.145835,257.31247 v -2.64583 H 47.625002"
       id="path141-3"
       inkscape:connector-curvature="0" />
    <path
       style="fill:none;stroke:#000000;stroke-width:1.32291663;stroke-miterlimit:4;stroke-dasharray:none"
       d="M 63.500001,254.66664 47.625002,241.43747"
       id="path143-6"
       inkscape:connector-curvature="0" />
    <path
       style="fill:none;stroke:#000000;stroke-width:1.32291663;stroke-miterlimit:4;stroke-dasharray:none"
       d="M 71.437501,283.7708 H 47.625002"
       id="path145-0"
       inkscape:connector-curvature="0" />
    <path
       style="fill:none;stroke:#000000;stroke-width:1.32291663;stroke-miterlimit:4;stroke-dasharray:none"
       d="M 47.625002,291.7083 H 71.437501"
       id="path147-6"
       inkscape:connector-curvature="0" />
  </g>
</svg>
